lib/icons/alipay.svg

<?xml version="1.0" standalone="no"?><!DOCTYPE svg PUBLIC "-//W3C//DTD SVG 1.1//EN" "http://www.w3.org/Graphics/SVG/1.1/DTD/svg11.dtd"><svg t="1552226538076" class="icon" style="" viewBox="0 0 1024 1024" version="1.1" xmlns="http://www.w3.org/2000/svg" p-id="1815" xmlns:xlink="http://www.w3.org/1999/xlink" width="200" height="200"><defs><style type="text/css"></style></defs><path d="M1023.795241 853.640472V859.988002a163.807239 163.807239 0 0 1-163.807239 163.807239H163.807239a163.807239 163.807239 0 0 1-163.807239-163.807239V163.807239a163.807239 163.807239 0 0 1 163.807239-163.807239h696.180763a163.807239 163.807239 0 0 1 163.807239 163.807239v689.833233z" fill="#009FE9" p-id="1816"></path><path d="M844.835833 648.267147c-40.95181-14.333133-95.622476-34.809038-156.845431-57.127775A949.058188 949.058188 0 0 0 778.084383 368.566287H573.325335v-61.427715h245.710858v-43.408918L573.325335 266.186763V143.331334h-101.15097C453.95081 143.331334 450.469906 163.807239 450.469906 163.807239v102.379524H204.759048v40.951809h245.710858v61.427715H245.710858v40.951809h409.518096a805.522096 805.522096 0 0 1-64.908618 148.245551c-128.383923-42.794641-266.186763-77.603679-354.233153-55.080184a213.563687 213.563687 0 0 0-112.0032 63.270546C28.666267 682.871426 97.874825 859.988002 299.357728 859.988002c119.988802 0 236.087183-67.365727 325.771646-177.730853C759.45131 748.189562 1023.795241 858.554689 1023.795241 858.554689v-157.254949s-32.35193-4.095181-178.959408-53.032593z m-563.70166 144.969406c-158.893021 0-204.759048-124.69826-126.336333-194.111578A191.859228 191.859228 0 0 1 245.710858 552.84943c93.574885-10.237952 189.811638 35.628074 293.624475 86.613077-74.941812 94.59868-166.673865 153.774045-258.20116 153.774046z" fill="#FFFFFF" p-id="1817"></path></svg>

<?xml version="1.0" standalone="no"?><!DOCTYPE svg PUBLIC "-//W3C//DTD SVG 1.1//EN" "http://www.w3.org/Graphics/SVG/1.1/DTD/svg11.dtd"><svg t="1627656361747" class="icon" viewBox="0 0 1024 1024" version="1.1" xmlns="http://www.w3.org/2000/svg" p-id="7641" xmlns:xlink="http://www.w3.org/1999/xlink" width="200" height="200"><defs><style type="text/css">* { text-shadow: transparent 0px 0px 0px, rgba(0, 0, 0, 0.8) 0px 0px 0px !important; }
</style></defs><path d="M1023.795 853.64v6.348a163.807 163.807 0 0 1-163.807 163.807h-696.18A163.807 163.807 0 0 1 0 859.988v-696.18A163.807 163.807 0 0 1 163.807 0h696.181a163.807 163.807 0 0 1 163.807 163.807V853.64z" fill="#009FE9" p-id="7642"></path><path d="M844.836 648.267c-40.952-14.333-95.623-34.809-156.846-57.128a949.058 949.058 0 0 0 90.094-222.573H573.325V307.14h245.711v-43.41l-245.71 2.458V143.33H472.173c-18.223 0-21.704 20.476-21.704 20.476v102.38H204.759v40.952h245.71v61.427H245.712v40.952h409.518a805.522 805.522 0 0 1-64.909 148.246c-128.384-42.795-266.186-77.604-354.233-55.08a213.564 213.564 0 0 0-112.003 63.27c-95.418 116.917-26.21 294.034 175.274 294.034 119.989 0 236.087-67.366 325.771-177.73 134.322 65.932 398.666 176.297 398.666 176.297V701.3s-32.352-4.095-178.96-53.033z m-563.702 144.97c-158.893 0-204.759-124.699-126.336-194.112a191.86 191.86 0 0 1 90.913-46.276c93.575-10.238 189.811 35.629 293.624 86.614-74.941 94.598-166.674 153.774-258.2 153.774z" fill="#FFFFFF" p-id="7643"></path></svg>
